X:1
T:Wells (Monk), LM
T:Wells (Monk), LM
T:William Henry Monk, 1875
T:Public Domain Courtesy of the Cyber Hymnal™
C:William Henry Monk, 1875
Z:Public Domain
Z:Courtesy of the Cyber Hymnal™
%%score ( 1 2 ) ( 3 4 )
L:1/8
M:3/4
K:D
V:1 treble 
V:2 treble 
V:3 bass 
V:4 bass 
V:1
 [DA]2 [Dd]2 [DA]2 | [DB]4 [DA]2 | [DG]4 [CG]2 | [DF]4 [EA]2 | [Dd]4 [Fd]2 | [Fc]4 [EA]2 | %6
 [FB]4 [EB]2 | [CA]4 [Ec]2 | B4 [FB]2 | A4 [DA]2 | [DG]2 [CA]2 [EG]2 | [DF]2 G2 A2 | [DB]4 [GB]2 | %13
 [FA]4 [DF]2 | [DE]4 [DE]2 | D6 |] %16
V:2
 x6 | x6 | x6 | x6 | x6 | x6 | x6 | x6 | F2 G2 x2 | (E2 F2) x2 | x6 | x2 D4 | x6 | x6 | x6 | D6 |] %16
V:3
 [D,F,]2 [D,F,]2 [F,A,]2 | G,4 [F,A,]2 | [E,B,]4 [A,,A,]2 | [D,A,]4 [C,A,]2 | [B,,F,]4 [D,B,]2 | %5
 [F,A,]4 [C,A,]2 | [D,A,]4 [E,^G,]2 | [A,,E,A,]4 [A,C]2 | [A,D]2 [G,E]2 [G,D]2 | %9
 ([G,C]2 [F,D]2) [F,A,]2 | [E,B,]2 [A,,A,]2 [C,A,]2 | [D,A,]2 [B,D]2 [A,=C]2 | [G,B,]4 [E,C]2 | %13
 [F,D]4 A,2 | A,4 [A,,G,]2 | [D,F,]6 |] %16
V:4
 x6 | G,4 x2 | x6 | x6 | x6 | x6 | x6 | x6 | x6 | x6 | x6 | x6 | x6 | x4 (F,G,) | A,4 x2 | x6 |] %16

